src/assets/icon/rewarded_ads.svg

<svg width="16" height="16" viewBox="0 0 16 16" fill="none" xmlns="http://www.w3.org/2000/svg">
<mask id="mask0_505_5443" style="mask-type:alpha" maskUnits="userSpaceOnUse" x="0" y="0" width="16" height="16">
<rect width="16" height="16" fill="#D9D9D9"/>
</mask>
<g mask="url(#mask0_505_5443)">
<path d="M8.00028 7.33301C8.36695 7.33301 8.68084 7.20245 8.94195 6.94134C9.20306 6.68023 9.33362 6.36634 9.33362 5.99967C9.33362 5.63301 9.20306 5.31912 8.94195 5.05801C8.68084 4.7969 8.36695 4.66634 8.00028 4.66634C7.63362 4.66634 7.31973 4.7969 7.05862 5.05801C6.79751 5.31912 6.66695 5.63301 6.66695 5.99967C6.66695 6.36634 6.79751 6.68023 7.05862 6.94134C7.31973 7.20245 7.63362 7.33301 8.00028 7.33301ZM7.50028 12.6663V10.3817C6.92162 10.2979 6.41201 10.0716 5.97145 9.70284C5.5309 9.33406 5.23195 8.87062 5.07462 8.31251C4.3054 8.22106 3.65628 7.89456 3.12728 7.33301C2.59817 6.77145 2.33362 6.10479 2.33362 5.33301V4.87151C2.33362 4.54006 2.45162 4.25634 2.68762 4.02034C2.92362 3.78434 3.20734 3.66634 3.53878 3.66634H4.88495V3.53817C4.88495 3.20673 5.00295 2.92301 5.23895 2.68701C5.47495 2.45101 5.75867 2.33301 6.09012 2.33301H9.91045C10.2419 2.33301 10.5256 2.45101 10.7616 2.68701C10.9976 2.92301 11.1156 3.20673 11.1156 3.53817V3.66634H12.4618C12.7932 3.66634 13.077 3.78434 13.313 4.02034C13.549 4.25634 13.667 4.54006 13.667 4.87151V5.33301C13.667 6.10479 13.4024 6.77145 12.8733 7.33301C12.3443 7.89456 11.6952 8.22106 10.926 8.31251C10.7686 8.87062 10.4697 9.33406 10.0291 9.70284C9.58856 10.0716 9.07895 10.2979 8.50028 10.3817V12.6663H10.3721C10.5138 12.6663 10.6325 12.7143 10.7283 12.8102C10.8242 12.9061 10.8721 13.0248 10.8721 13.1665C10.8721 13.3083 10.8242 13.427 10.7283 13.5227C10.6325 13.6185 10.5138 13.6663 10.3721 13.6663H5.62845C5.48678 13.6663 5.36806 13.6184 5.27228 13.5225C5.1764 13.4266 5.12845 13.3078 5.12845 13.1662C5.12845 13.0244 5.1764 12.9057 5.27228 12.81C5.36806 12.7142 5.48678 12.6663 5.62845 12.6663H7.50028ZM4.88495 7.23817V4.66634H3.53878C3.4789 4.66634 3.42973 4.68556 3.39128 4.72401C3.35284 4.76245 3.33362 4.81162 3.33362 4.87151V5.33301C3.33362 5.79367 3.47934 6.20095 3.77078 6.55484C4.06223 6.90862 4.43362 7.1364 4.88495 7.23817ZM8.00178 9.42284C8.58623 9.42284 9.08251 9.2184 9.49062 8.80951C9.89873 8.40062 10.1028 7.90417 10.1028 7.32017V3.53817C10.1028 3.47829 10.0836 3.42912 10.0451 3.39067C10.0067 3.35223 9.95756 3.33301 9.89778 3.33301H6.10278C6.04301 3.33301 5.9939 3.35223 5.95545 3.39067C5.91701 3.42912 5.89778 3.47829 5.89778 3.53817V7.32017C5.89778 7.90417 6.10234 8.40062 6.51145 8.80951C6.92056 9.2184 7.41734 9.42284 8.00178 9.42284ZM11.1156 7.23817C11.567 7.1364 11.9383 6.90862 12.2298 6.55484C12.5212 6.20095 12.667 5.79367 12.667 5.33301V4.87151C12.667 4.81162 12.6477 4.76245 12.6093 4.72401C12.5708 4.68556 12.5217 4.66634 12.4618 4.66634H11.1156V7.23817Z" fill="black"/>
</g>
</svg>

<svg xmlns="http://www.w3.org/2000/svg" width="16" height="16" fill="none" xmlns:v="https://vecta.io/nano"><mask id="A" maskUnits="userSpaceOnUse" x="0" y="0" width="16" height="16" mask-type="alpha"><path fill="#d9d9d9" d="M0 0h16v16H0z"/></mask><g mask="url(#A)"><path d="M8 7.333c.367 0 .681-.131.942-.392s.392-.575.392-.942-.131-.681-.392-.942-.575-.392-.942-.392-.681.131-.942.392-.392.575-.392.942.131.681.392.942.575.392.942.392zm-.5 5.333v-2.285c-.579-.084-1.088-.31-1.529-.679a2.74 2.74 0 0 1-.897-1.39 3.1 3.1 0 0 1-1.947-.979c-.529-.562-.794-1.228-.794-2v-.461a1.16 1.16 0 0 1 .354-.851 1.16 1.16 0 0 1 .851-.354h1.346v-.128a1.16 1.16 0 0 1 .354-.851 1.16 1.16 0 0 1 .851-.354h3.82a1.16 1.16 0 0 1 .851.354 1.16 1.16 0 0 1 .354.851v.128h1.346a1.16 1.16 0 0 1 .851.354 1.16 1.16 0 0 1 .354.851v.462c0 .772-.265 1.438-.794 2a3.1 3.1 0 0 1-1.947.979 2.74 2.74 0 0 1-.897 1.39c-.441.369-.95.595-1.529.679v2.285h1.872c.142 0 .26.048.356.144s.144.215.144.356-.048.261-.144.356-.215.144-.356.144H5.628c-.142 0-.26-.048-.356-.144s-.144-.215-.144-.356.048-.261.144-.356.215-.144.356-.144H7.5zM4.885 7.238V4.666H3.539a.2.2 0 0 0-.205.205v.462c0 .461.146.868.437 1.222s.663.582 1.114.683zm3.117 2.185c.584 0 1.081-.204 1.489-.613a2.03 2.03 0 0 0 .612-1.489V3.538a.2.2 0 0 0-.058-.147c-.038-.038-.088-.058-.147-.058H6.103a.2.2 0 0 0-.205.205V7.32c0 .584.205 1.08.614 1.489a2.03 2.03 0 0 0 1.49.613zm3.114-2.185c.451-.102.823-.33 1.114-.683s.437-.761.437-1.222v-.461a.2.2 0 0 0-.205-.205h-1.346v2.572z" fill="#000"/></g></svg>
